usr/share/icons/biglinux-icons-material/symbolic/actions/format-text-remove-formatting-symbolic.svg

<svg width="16" height="16" version="1.1" xmlns="http://www.w3.org/2000/svg">
 <path d="m4 3v1h5.8809l0.88867-0.88867c-0.24703-0.065406-0.50137-0.11133-0.76953-0.11133h-6zm8.8906 2.2324-0.89062 0.89062v0.87695h-0.87695l-1 1h1.877v4h-5.8789l-0.88867 0.88867c0.24649 0.0651 0.50007 0.11133 0.76758 0.11133h7v-7c0-0.2673-0.04437-0.52126-0.10938-0.76758zm-6.8906 1.7676c-1.662 0-3 1.338-3 3 0 0.2675 0.046232 0.52109 0.11133 0.76758l0.90234-0.90234c0.067063-0.99809 0.85347-1.7845 1.8516-1.8516l1.0137-1.0137h-0.87891z" fill="#dedede"/>
 <rect transform="rotate(-45)" x="-8.0029" y="10.81" width="16" height="1" fill="#dedede"/>
</svg>

<svg xmlns="http://www.w3.org/2000/svg" width="16" height="16"><path fill="#dedede" d="M4 3v1h5.88l.89-.889A2.987 2.987 0 0 0 10 3H4zm8.89 2.232-.89.891V7h-.877l-1 1H12v4H6.121l-.889.889c.247.065.5.111.768.111h7V6c0-.267-.044-.521-.11-.768zM6 7c-1.662 0-3 1.338-3 3 0 .268.046.521.111.768l.903-.903a1.983 1.983 0 0 1 1.851-1.851L6.88 7H6zM1.985 13.303 13.299 1.989l.707.707L2.692 14.01z"/></svg>
